packages/core/src/svgs/ommi.svg

<svg width="24" height="24" viewBox="0 0 24 24" fill="none" xmlns="http://www.w3.org/2000/svg">
<g clip-path="url(#clip0_31_15373)">
<path d="M0 0H24V24H0V0Z" fill="url(#paint0_linear_31_15373)"/>
<path d="M12.4543 6.44587C14.1257 6.57444 15.5914 7.43158 16.53 8.70444L17.5714 7.94587C16.9743 7.13537 16.2065 6.46581 15.3224 5.98447C14.4382 5.50313 13.4591 5.22174 12.4543 5.16016V6.44587ZM7.76143 6.6173C6.82069 7.35983 6.09099 8.33595 5.64506 9.44837C5.19913 10.5608 5.05254 11.7707 5.2199 12.9574C5.38727 14.1441 5.86274 15.2662 6.59893 16.212C7.33512 17.1577 8.30631 17.8939 9.41571 18.3473L9.85714 17.1387C8.9605 16.7639 8.1775 16.161 7.5859 15.39C6.99429 14.619 6.61465 13.7066 6.48468 12.7435C6.3547 11.7804 6.47891 10.8001 6.84498 9.8998C7.21104 8.99954 7.80622 8.2107 8.57142 7.61158L7.75714 6.6173H7.76143ZM13.0114 17.4859L13.2257 18.7544C14.94 18.4544 16.4357 17.5202 17.46 16.2002L16.5129 15.3216C15.6633 16.4619 14.4113 17.2358 13.0114 17.4859Z" fill="url(#paint1_linear_31_15373)"/>
<path d="M10.3028 7.71449C11.0153 7.71449 11.5928 7.13886 11.5928 6.42878C11.5928 5.7187 11.0153 5.14307 10.3028 5.14307C9.59037 5.14307 9.01282 5.7187 9.01282 6.42878C9.01282 7.13886 9.59037 7.71449 10.3028 7.71449Z" fill="url(#paint2_linear_31_15373)"/>
<path d="M9.01292 12.8574C9.48867 12.8574 9.87435 12.4736 9.87435 12.0002C9.87435 11.5268 9.48867 11.1431 9.01292 11.1431C8.53716 11.1431 8.15149 11.5268 8.15149 12.0002C8.15149 12.4736 8.53716 12.8574 9.01292 12.8574Z" fill="url(#paint3_linear_31_15373)"/>
<path d="M11.3615 18.8572C11.9556 18.8572 12.4372 18.3775 12.4372 17.7858C12.4372 17.1941 11.9556 16.7144 11.3615 16.7144C10.7674 16.7144 10.2858 17.1941 10.2858 17.7858C10.2858 18.3775 10.7674 18.8572 11.3615 18.8572Z" fill="url(#paint4_linear_31_15373)"/>
<path d="M13.8471 13.8173C13.565 14.1013 13.2205 14.3156 12.8411 14.4433C12.4616 14.5709 12.0577 14.6083 11.6612 14.5526C11.2648 14.4969 10.8868 14.3495 10.5573 14.1221C10.2277 13.8948 9.95573 13.5938 9.76284 13.243L8.47712 13.543C8.72984 14.1201 9.11963 14.6268 9.61264 15.0191C10.1057 15.4114 10.687 15.6773 11.3061 15.7939C11.9253 15.9104 12.5635 15.8741 13.1654 15.688C13.7673 15.5018 14.3147 15.1716 14.76 14.7259L13.8471 13.8173ZM13.9757 10.3202C13.7073 10.0076 13.3678 9.76396 12.9858 9.60973C12.6037 9.4555 12.1903 9.39517 11.7801 9.43379C11.3699 9.47242 10.975 9.60887 10.6284 9.83171C10.2819 10.0545 9.99389 10.3573 9.78855 10.7144H8.37427C8.60007 10.0759 8.98948 9.50789 9.50358 9.06702C10.0177 8.62616 10.6385 8.32793 11.3039 8.20212C11.9694 8.07632 12.6562 8.12735 13.2958 8.35012C13.9353 8.57288 14.5052 8.95958 14.9486 9.47159L13.9757 10.3202Z" fill="url(#paint5_linear_31_15373)"/>
</g>
<defs>
<linearGradient id="paint0_linear_31_15373" x1="4.46571" y1="4.16143" x2="29.2071" y2="32.58" gradientUnits="userSpaceOnUse">
<stop stop-color="#1A1E21"/>
<stop offset="1" stop-color="#06060A"/>
</linearGradient>
<linearGradient id="paint1_linear_31_15373" x1="15.2486" y1="7.07158" x2="7.75714" y2="18.0216" gradientUnits="userSpaceOnUse">
<stop stop-color="#3AD02C"/>
<stop offset="0.28" stop-color="#3DD22D"/>
<stop offset="0.59" stop-color="#79D41C"/>
<stop offset="1" stop-color="#C9D505"/>
</linearGradient>
<linearGradient id="paint2_linear_31_15373" x1="11.1642" y1="5.78592" x2="9.87853" y2="7.29021" gradientUnits="userSpaceOnUse">
<stop stop-color="#233D1A"/>
<stop offset="1" stop-color="#2BD009"/>
</linearGradient>
<linearGradient id="paint3_linear_31_15373" x1="9.66006" y1="11.7859" x2="8.37006" y2="12.6474" gradientUnits="userSpaceOnUse">
<stop stop-color="#A7A710"/>
<stop offset="1" stop-color="#162C00"/>
</linearGradient>
<linearGradient id="paint4_linear_31_15373" x1="12.4372" y1="18.0001" x2="10.7143" y2="18.0001" gradientUnits="userSpaceOnUse">
<stop stop-color="#489722"/>
<stop offset="1" stop-color="#516D3A"/>
</linearGradient>
<linearGradient id="paint5_linear_31_15373" x1="10.3028" y1="9.21444" x2="13.5128" y2="14.7944" gradientUnits="userSpaceOnUse">
<stop stop-color="#47D12D"/>
<stop offset="0.45" stop-color="#C8D65E" stop-opacity="0.59"/>
<stop offset="0.74" stop-color="#51CE32"/>
<stop offset="1" stop-color="#BFD30F"/>
</linearGradient>
<clipPath id="clip0_31_15373">
<rect width="24" height="24" fill="white"/>
</clipPath>
</defs>
</svg>

<svg xmlns="http://www.w3.org/2000/svg" width="24" height="24" fill="none" viewBox="0 0 24 24"><g clip-path="url(#a)"><path fill="url(#b)" d="M0 0h24v24H0z"/><path fill="url(#c)" d="M12.454 6.446a5.6 5.6 0 0 1 4.076 2.258l1.041-.758a6.88 6.88 0 0 0-5.117-2.786zm-4.693.171a6.857 6.857 0 0 0 1.655 11.73l.441-1.208a5.57 5.57 0 0 1-1.286-9.527l-.814-.995zm5.25 10.869.215 1.268A6.86 6.86 0 0 0 17.46 16.2l-.947-.878a5.6 5.6 0 0 1-3.502 2.164"/><path fill="url(#d)" d="M10.303 7.714c.712 0 1.29-.575 1.29-1.285s-.578-1.286-1.29-1.286-1.29.576-1.29 1.286.577 1.285 1.29 1.285"/><path fill="url(#e)" d="M9.013 12.857A.86.86 0 0 0 9.874 12a.86.86 0 0 0-.861-.857.86.86 0 0 0-.862.857.86.86 0 0 0 .862.857"/><path fill="url(#f)" d="M11.362 18.857c.594 0 1.075-.48 1.075-1.071 0-.592-.481-1.072-1.075-1.072-.595 0-1.076.48-1.076 1.072 0 .591.481 1.071 1.076 1.071"/><path fill="url(#g)" d="M13.847 13.817a2.576 2.576 0 0 1-4.084-.574l-1.286.3a3.87 3.87 0 0 0 6.283 1.183zm.129-3.497a2.576 2.576 0 0 0-4.187.394H8.374a3.87 3.87 0 0 1 6.575-1.242z"/></g><defs><linearGradient id="b" x1="4.466" x2="29.207" y1="4.161" y2="32.58" gradientUnits="userSpaceOnUse"><stop stop-color="#1A1E21"/><stop offset="1" stop-color="#06060A"/></linearGradient><linearGradient id="c" x1="15.249" x2="7.757" y1="7.072" y2="18.022" gradientUnits="userSpaceOnUse"><stop stop-color="#3AD02C"/><stop offset=".28" stop-color="#3DD22D"/><stop offset=".59" stop-color="#79D41C"/><stop offset="1" stop-color="#C9D505"/></linearGradient><linearGradient id="d" x1="11.164" x2="9.879" y1="5.786" y2="7.29" gradientUnits="userSpaceOnUse"><stop stop-color="#233D1A"/><stop offset="1" stop-color="#2BD009"/></linearGradient><linearGradient id="e" x1="9.66" x2="8.37" y1="11.786" y2="12.647" gradientUnits="userSpaceOnUse"><stop stop-color="#A7A710"/><stop offset="1" stop-color="#162C00"/></linearGradient><linearGradient id="f" x1="12.437" x2="10.714" y1="18" y2="18" gradientUnits="userSpaceOnUse"><stop stop-color="#489722"/><stop offset="1" stop-color="#516D3A"/></linearGradient><linearGradient id="g" x1="10.303" x2="13.513" y1="9.214" y2="14.794" gradientUnits="userSpaceOnUse"><stop stop-color="#47D12D"/><stop offset=".45" stop-color="#C8D65E" stop-opacity=".59"/><stop offset=".74" stop-color="#51CE32"/><stop offset="1" stop-color="#BFD30F"/></linearGradient><clipPath id="a"><path fill="#fff" d="M0 0h24v24H0z"/></clipPath></defs></svg>
